Obsidian-SemiLight/actions/24s/im-facebook.svg

<svg viewBox="0 0 24 24" xmlns="http://www.w3.org/2000/svg"><path d="m17.65625 4c-2.795946 0-3.779297 1.415375-3.779297 3.796875v1.6152344h-1.876953v3.0585936h1.876953v7.529297h3.486328v-7.529297h2.328125l.308594-3.0585936h-2.636719l.00586-1.3222656c0-.7616001.07157-1.1699219 1.160156-1.1699219h1.455078v-2.9199219z" fill="#4d4d4d"/></svg>

<svg xmlns="http://www.w3.org/2000/svg" viewBox="0 0 24 24">
  <defs id="defs3051">
    <style type="text/css" id="current-color-scheme">
      .ColorScheme-Text {
        color:#4d4d4d;
      }
      </style>
  </defs>
 <path style="fill:currentColor;fill-opacity:1;stroke:none" 
     d="M 17.65625 4 C 14.860304 4 13.876953 5.415375 13.876953 7.796875 L 13.876953 9.4121094 L 12 9.4121094 L 12 12.470703 L 13.876953 12.470703 L 13.876953 20 L 17.363281 20 L 17.363281 12.470703 L 19.691406 12.470703 L 20 9.4121094 L 17.363281 9.4121094 L 17.369141 8.0898438 C 17.369141 7.3282437 17.440711 6.9199219 18.529297 6.9199219 L 19.984375 6.9199219 L 19.984375 4 L 17.65625 4 z "
     class="ColorScheme-Text"
     />
</svg>
